dist/images/icons/arrow.svg

<svg width="8" height="14" viewBox="0 0 8 14" fill="none" xmlns="http://www.w3.org/2000/svg">
<path d="M7.3266 6.75892L7.32664 6.75897C7.59092 7.03206 7.59092 7.47324 7.32664 7.74633L1.85779 13.3975C1.72109 13.5387 1.54352 13.6076 1.36407 13.6076C1.18458 13.6076 1.00544 13.5347 0.87262 13.3975C0.608339 13.1244 0.608339 12.6832 0.87262 12.4101L5.86372 7.25265L0.94848 2.17357C0.6842 1.90048 0.6842 1.4593 0.94848 1.18621C1.21809 0.907619 1.66168 0.907604 1.93131 1.18617C1.93132 1.18618 1.93134 1.1862 1.93135 1.18621L7.3266 6.75892Z" fill="white" stroke="white" stroke-width="0.6"/>
</svg>

<svg width="8" height="14" fill="none" xmlns="http://www.w3.org/2000/svg"><path d="M7.327 6.759h0a.714.714 0 010 .987l-5.47 5.652a.682.682 0 01-.984 0 .714.714 0 010-.988l4.99-5.157-4.915-5.08a.714.714 0 010-.987.682.682 0 01.983 0s0 0 0 0L7.327 6.76z" fill="#fff" stroke="#fff" stroke-width=".6"/></svg>
